!!! OTL: Berkowitz400
!!! Chapter: 1
!!! Section: III
!!! Page: 99
!!! Mode: 
!!! Encoder: DJB
**kern
*staff1
*I"Piano
=1-
*clefG2
*k[f#]
*G:
*M2/4
16g/LL
16f#/
16g/
16b/JJ
16a/LL
16g/
16f#/
16e/JJ
=2
16d/LL
16e/
16f#/
16g/JJ
16a\LL
16b\
16cc\
16a\JJ
=3
16g/LL
16f#/
16g/
16b/JJ
16a/LL
16g/
16f#/
16e/JJ
=4
16d#/LL
16e/
16f#/
16g/JJ
16a\LL
16cc\
16b\
16a\JJ
=5
16g/LL
16b/
16a/
16g/JJ
16f#/LL
16a/
16dd/
16f#/JJ
=6
!!linebreak:original
16e/LL
16g/
16dd/
16cc#/JJ
4dd\
=7
16dd\LL
16cc\
16b\
16a\JJ
16g#/LL
16f#/
16e/
16dd/JJ
=8
16cc/LL
16b/
16a/
16g#/JJ
8a/L
8b/J
=9
16cc/LL
16b/
16a/
16g/JJ
16f#/LL
16e/
16d/
16e/JJ
=10
16f#/LL
16g/
16a/
16b/JJ
8cc\L
8cc#\J
=11
4r
16dd\LL
16cc\
16b\
16a\JJ
=12
!!linebreak:original
16g/LL
16f#/
16g/
16b/JJ
16a/LL
16g/
16f#/
16e/JJ
=13
16d/LL
16e/
16f#/
16g/JJ
16a\LL
16b\
16cc\
16a\JJ
=14
16dd\LL
16cc#\
16dd\
16b\JJ
16ccn\LL
16b\
16cc\
16a\JJ
=15
16dd/LL
16cc#/
16dd/
16f#/JJ
4g/
==
*-
